X:4525
L:1/8
Q:3/8=110
M:12/8
K:D
 a2 g fed ced cBA | dcB AGF GAG FED | fag fed ced cBA | fed cea cdB A3 |: e2 d cBA GFE D3 | 
 f2 e dcB A^GF E3 | a2 g fed gab a2 g | fed Adc d3 D3 |:

